!!!SOCIAL_FUNCTION:	initiation songs of the first and second degrees
!!!PDT:	1909
!!!OTL: No_6_My_Pipe.krn
!!!REG: Great_Lakes
!!!LANG: Non-Tone
!!!LING_GROUP: Algonquin
**kern	**kern
*staff2	*staff1
*clefF4	*clefF4
*k[f#]	*k[f#]
*M2/4	*M2/4
4r	8.d\L
.	16d\Jk
=1	=1
8GG/L	8.d\L
8GG/J	.
.	16d\Jk
8GG/L	8.d\L
8GG/J	.
.	16d\Jk
=2	=2
8GG/L	4d\
8GG/J	.
8GG/L	(16B\LK
.	8A\)
8GG/J	.
.	16A\Jk
=3!|:	=3!|:
2r	8.A\L
.	16A\Jk
.	(16A\LK
.	8G\)
.	16E\Jk
=4	=4
2r	4E\
.	4E\
=5	=5
2r	4.E\
.	16d\LL
.	16d\JJ
=6	=6
2r	8.d\L
.	16B\Jk
.	8.B\L
.	16B\Jk
=7	=7
2r	4A\
.	(16A\LK
.	8G\)
.	16G\Jk
=8	=8
2r	8.G\L
.	16G\Jk
.	(16G\LK
.	8E\)
.	16E\Jk
=9	=9
2r	4D\
.	8.D\L
.	16D\Jk
=10	=10
2r	8.D\L
.	16D\Jk
.	8.D\L
.	16D\Jk
=11	=11
2r	4D\
.	8.E\L
.	16E\Jk
=12	=12
2r	8.E\L
.	16E\Jk
.	8.E\L
.	16E\Jk
=13	=13
2r	4D\
.	8.D\L
.	16D\Jk
=14	=14
2r	8.BB/L
.	16BB/Jk
.	8.BB/L
.	16BB/Jk
=15	=15
2r	2GG/
=16	=16
2r	4r
.	16d\LL
.	16d\
.	16d\
.	16d\JJ
=17	=17
2r	4d\
.	(16d\LK
.	8B\)
.	16A\Jk
==:|!	==:|!
*-	*-
